X:1
T:Title
%%score ( 1 2 ) ( 3 4 )
L:1/8
Q:1/4=100
M:4/4
K:Eb
V:1 treble nm="Midi_20"
V:2 treble 
V:3 bass nm="Midi_20"
V:4 bass 
V:1
"^And now this holy day""^Edward Harland\n(1810-90)" E2 | F2 G2 A2"^Moseley (66. 66)" c2 | B6 c2 | %3
 A2 B2 G2 E2 |"^Henry Smart\n(1813-1879)" F6 || B2 | G2 e2 d2 c2 | B2 G2 A2 F2 | E4 D4 | E6 |] %10
V:2
 E2 | E2 E2 E2 E2 | E6 E2 | C2 F2 B,2 E2 | D6 || F2 | E2 E2 F2 F2 | F2 C2 C2 C2 | B,4 B,4 | B,6 |] %10
w: And|now this ho- ly|day Is|draw- ing to its|end,|Once|more, to Thee, O|Lord, ~Our thanks and|prayers we|send.|
w: We|thank Thee for this|rest From|earth- ly care and|strife;|We|thank Thee for this|help To ~high- er,|ho- lier|life.|
w: We|thank Thee for Thy|house; It|is Thy pa- lace-|gate|Where|Thou, up- on Thy|throne Of mer- cy,|still dost|wait.|
w: We|thank Thee for Thy|Word, Thy|Gos- pels ~joy- ful|sound;|Oh,|may its ~ho- ly|~fruits With- in our|hearts a-|bound!|
w: Yet,|ere we go to|rest, Fa-|ther, to Thee ~we|pray,|For-|give the sins that|stain Een this Thy|ho- ly|day.|
w: ~~~~~Through|Je- sus let the|past Be|blott- ed from Thy|sight,|And|let us all now|sleep At peace with|Thee this|night.|
w: To|God the Fa- ther,|Son, And|Spi- rit glo- ry|be,|From|all in earth and|Heavn, Through all e-|ter- ni-|ty.|
V:3
 G,2 | A,2 B,2 A,2 A,2 | G,6 G,2 | A,2 F,2 G,2 =A,2 | B,6 || B,2 | B,2 B,2 B,2 =A,2 | %7
 B,2 B,2 A,2 A,2 | %8
 G,4"^Public Domain\nCourtesy of thé Cyber Hymnal (http: //www.cyberhymnal.org)" F,2 A,2 | G,6 |] %10
V:4
 E,2 | E,3 D, C,2 A,,2 | E,6 C,2 | F,2 D,2 E,2 C,2 | B,,6 || D,2 | E,2 G,2 F,2 E,2 | %7
 D,2 =E,2 F,2 A,,2 | B,,4 B,,4 | E,6 |] %10

